setcps 0.75
d1 $ mask "1 1 0 1" $ sound "bd ~ rim sd"
d2 $ late 0.01 $ sound "hh hh hh hh" # gain 0.5
d3 $ slow 2 $ note "0 0 3 5" # sound "saw" # lpf 700 # release 0.3
d4 $ early 0.125 $ note "7 5 3 0" # sound "triangle" # gain 0.15
